X: 549
T: Pinto's whim. a Reel
%R: hornpipe, reel
B: "Twenty Four Country Dances for the Year 1805", Tho. Preston, ed. p.235 #1
F: http://folkopedia.efdss.org/images/archive/0/02/20121211105513%21Preston_24_1805.PDF
Z: 2014 John Chambers <jc:trillian.mit.edu>
N: The first "Gent.n" is actually spelled "Cent.n".
M: C|
L: 1/8
K: F
c |\
A<Fc>F f>gfd | (d/c/).B/.A/ (B/A/).G/.F/ EG-Gc |\
A<Fc>F Tf>gf>d | (d/c/).B/.A/ Gc AFF :|
|: g |\
{fg}a>gfd cA-Ac | g<cf>A {A}G3A |\
TB>ABc defg | {fg}a>f{ef}g>e fFF :|
%%begintext align
%% 1st Lady set to the 2d Gent.n and turn round
%% with both hands. the Gent.n do the same to the
%% 2d Lady. lead down the middle up again and
%% foot it.
%%endtext

%%sep 1 1 500
%%sep 1 1 500
